X: 1
T:Countrodanso n1
R:---
O:Val Varaita, Italie
M:2/4
L:1/8
K:G
GB/2c/2|:dd dc|BA Bc/2B/2|AG AA|BG GB/2c/2|dd dc|BA Bc/2B/2|AG AB| [1 G2 GB/2c/2 :| [2 G2
GA|:B>B BB|cB AG|A>A AA/2B/2|AG GA|B>B BB|cB AG|A>c BA| [1 G2 GA:| [2 G2 G2 |:
c>B AG|E2E2|A>G FE|F/2E/2D D2|G>F GA|B2 AB|dc BA| [1 G2 G2:| [2 G2 ||fine d2 g2|g2
%%footer $D   Galouvielle-MBe 2006 \n--- (Val Varaita, Italie)
